ligands/haptic/eta4-cyclo-octadiene.svg

<svg height="61" viewBox="0 0 141 61" width="141" xmlns="http://www.w3.org/2000/svg"><g transform="matrix(.05 0 0 .05 -161 -220)"><path d="m4570 5580h-20v-54.55h20z"/><path d="m4570 5470.91h-20v-54.55h20z"/><path d="m4570 5361.82h-20v-46.11h20z"/><path d="m4570 5034.55h-20v-54.55h20z"/><path d="m5995.37 4451.77-78.46 50.41-708.1 262.4-3.59-20z"/><path d="m5432.4 4988.38-78.67 107.28-646.8 195.05-11.8-80z"/><path d="m3931.79 4541.65 2.82 22.25-560.42 379.34-100.67 43.99z"/><path d="m4000.45 5210.71-16.37 80-710.56-303.48 100.67-43.99z"/><path d="m4499.98 4744.58-3.47 20-561.9-200.68-2.82-22.25z"/><path d="m4496.51 4764.58 3.47-20h705.24l3.59 20z"/><path d="m4498.25 4849.63v-20h708.76v20z"/><path d="m3984.08 5290.71 16.37-80h694.68l11.8 80z"/><path d="m4015.81 5145.66v-20h668.25v20z"/><path d="m5916.91 4502.18 78.46-50.41-641.64 643.89 78.67-107.28z"/></g></svg>

<svg xmlns="http://www.w3.org/2000/svg" xmlns:xlink="http://www.w3.org/1999/xlink" width="141" height="61" version="1.1" viewBox="0 0 141 61" style="background-color:#ffffff00"><path fill="#000" stroke="none" d="M 4570,5580 L 4550,5580 L 4550,5525.45 L 4570,5525.45 L 4570,5580 L 4570,5580 Z" transform="matrix(0.05 0 0 0.05 -161 -220)"/><path fill="#000" stroke="none" d="M 4570,5470.91 L 4550,5470.91 L 4550,5416.36 L 4570,5416.36 L 4570,5470.91 L 4570,5470.91 Z" transform="matrix(0.05 0 0 0.05 -161 -220)"/><path fill="#000" stroke="none" d="M 4570,5361.82 L 4550,5361.82 L 4550,5315.71 L 4570,5315.71 L 4570,5361.82 L 4570,5361.82 Z" transform="matrix(0.05 0 0 0.05 -161 -220)"/><path fill="#000" stroke="none" d="M 4570,5034.55 L 4550,5034.55 L 4550,4980 L 4570,4980 L 4570,5034.55 L 4570,5034.55 Z" transform="matrix(0.05 0 0 0.05 -161 -220)"/><path fill="#000" stroke="none" d="M 5995.37,4451.77 L 5916.91,4502.18 L 5208.81,4764.58 L 5205.22,4744.58 L 5995.37,4451.77 Z" transform="matrix(0.05 0 0 0.05 -161 -220)"/><path fill="#000" stroke="none" d="M 5432.4,4988.38 L 5353.73,5095.66 L 4706.93,5290.71 L 4695.13,5210.71 L 5432.4,4988.38 Z" transform="matrix(0.05 0 0 0.05 -161 -220)"/><path fill="#000" stroke="none" d="M 3931.79,4541.65 L 3934.61,4563.9 L 3374.19,4943.24 L 3273.52,4987.23 L 3931.79,4541.65 Z" transform="matrix(0.05 0 0 0.05 -161 -220)"/><path fill="#000" stroke="none" d="M 4000.45,5210.71 L 3984.08,5290.71 L 3273.52,4987.23 L 3374.19,4943.24 L 4000.45,5210.71 Z" transform="matrix(0.05 0 0 0.05 -161 -220)"/><path fill="#000" stroke="none" d="M 4499.98,4744.58 L 4496.51,4764.58 L 3934.61,4563.9 L 3931.79,4541.65 L 4499.98,4744.58 Z" transform="matrix(0.05 0 0 0.05 -161 -220)"/><path fill="#000" stroke="none" d="M 4496.51,4764.58 L 4499.98,4744.58 L 5205.22,4744.58 L 5208.81,4764.58 L 4496.51,4764.58 Z" transform="matrix(0.05 0 0 0.05 -161 -220)"/><path fill="#000" stroke="none" d="M 4498.25,4849.63 L 4498.25,4829.63 L 5207.01,4829.63 L 5207.01,4849.63 L 4498.25,4849.63 Z" transform="matrix(0.05 0 0 0.05 -161 -220)"/><path fill="#000" stroke="none" d="M 3984.08,5290.71 L 4000.45,5210.71 L 4695.13,5210.71 L 4706.93,5290.71 L 3984.08,5290.71 Z" transform="matrix(0.05 0 0 0.05 -161 -220)"/><path fill="#000" stroke="none" d="M 4015.81,5145.66 L 4015.81,5125.66 L 4684.06,5125.66 L 4684.06,5145.66 L 4015.81,5145.66 Z" transform="matrix(0.05 0 0 0.05 -161 -220)"/><path fill="#000" stroke="none" d="M 5916.91,4502.18 L 5995.37,4451.77 L 5353.73,5095.66 L 5432.4,4988.38 L 5916.91,4502.18 Z" transform="matrix(0.05 0 0 0.05 -161 -220)"/></svg>
